X:1
T:Viri sancti
T:Andrea Gabrieli
T:Source : Liber primus Ecclesiasticarum Cantionum---Venetia---Ang.Gardano---1576. Editor : André Vierendeels (15/09/17).
T:Viri sancti
T:©
T:©
T:©
T:©
T:©
C:Andrea Gabrieli
Z:©
%%score [ 1 2 3 4 ]
L:1/8
Q:1/4=120
M:2/2
K:C
V:1 treble nm="Soprano" snm="S"
V:2 treble-8 nm="Tenor 1" snm="T 1"
V:3 treble-8 nm="Tenor 2" snm="T 2"
V:4 bass nm="Bass" snm="B"
V:1
 z8 | z4 G4- | G4 B4 | c4 G4- | G4 z4 | z8 | z2 c4 c2 | B2 B2 A3 A | G2 A2 B4 | c4 z2 G2- | %10
w: |Vi-|* ri|san- cti|_||glo- ri-|o- sum san- gui-|nem su- de-|runt, glo-|
 G2 G2 F2 F2 | E3 E D2 E2 | F4 G4- | G4 B4 | c2 c2 B3 c | d2 G4 A2- | A2 GF E3 F |"^#" GA G4 F2 | %18
w: * ri- o- sum|san- gui- nem su-|de- runt|_ pro|Do- mi- no, _|_ pro Do-||* * * mi-|
 G8 | z8 | z4 z2 G2 | C2 E2 D4 | C2 E4 E2 | C2 D2 E4- | E4 D4 | z4 z2 G2- | G2 G2 E2 G2 | %27
w: no||in|vi- ta su-|a a- ma-|ve- runt Chri-|* stum,|a-|* ma- ve- runt|
 F4 E2 G2 | CDEC D2 G2 |"^#""^#" GF/E/ F2 G2 G2- | G2 G2 G2 G2 | A4 c4- | c2 BA B4 | c2 G2 _B4 | %34
w: Chri- stum in|vi- * * * * ta|su- * * * a i-|* mi- ta- ti|sunt e-||um in mor-|
 _B2 A4 G2 | A8 | A8 | z4 z2 G2 | F4 F2 E2- | E2 D2 E2 G2 | c6 B2 | AG G4 F2 | G8- | G4 z2 G2 | %44
w: te su- *|a,|_|in|mor- te su-|* * a, in|mor- te|su- * * *|a,|_ et|
 B2 c2 B2 B2 | B2 G2 B2 B2 | c4 B4 | z8 | z2 d2 G2 c2- | cB/A/ B2 c2 G2 | G2 A2 G2 c2 | %51
w: i- de- o co-|ro- nas tri- um-|pha- les||me- ru- e-|* * * * runt, et|i- de- o co-|
 c2 A2 c2 c2 | d4 c2 G2- | G2 G2 G2 E2 | G3 F/E/ F2 F2 | E4 D4 | z4 z2 d2 | d2 e2 d2 G2 | %58
w: ro- nas tri- um-|pha- les me-|* ru- e- runt,|me- * * * ru-|e- runt,|et|i- de- o, et|
 G2 A2 G4 | z4 z2 G2 | G2 F2 G2 G2 | A4 G2 F2 |"^#" D2 G4 F2 | G8 |] %64
w: i- de- o|co-|ro- nas tri- um-|pha- les me-|ru- e- *|runt/|
V:2
 z8 | z8 | z2 g4 g2 | f2 f2 e3 e | d2 e2 f4 | g4 z4 | c8 | e4 f4 | c4 G4- | G2 A2 c4 | B4 z2 c2- | %11
w: ||Glo- ri-|o- sum san- gui-|nem su- de-|runt,|vi-|ri san-|cti, vi-|* ri san-|cti glo-|
 c2 c2 B2 B2 | A3 A G2 G2 | G8 | A2 c2 d4 | d4 c3 d/e/ | f2 d2 G3 A | B3 c d2 d2 | B2 d4 d2 | %19
w: * ri- o- sum|san- gui- nem su-|de-|runt pro Do-|mi- no, _ _|_ pro Do- *|* * * mi-|no, a- ma-|
 B2 d2 c4 | B2 d2 GABG | A2 c2 cB/A/ B2 | c8 | z2 d2 G2 c2 | cBGA BcdB | c4 B2 d2 | cdef g2 G2 | %27
w: ve- runt Chri-|sti in vi- * * *|* ta su- * * *|a,|in vi- ta|su- * * * * * * *|* a, in|vi- * * * * ta|
 d4 G4 | z8 | z4 z2 e2- | e2 e2 e2 e2 | e2 e3 def | g8 | g2 e2 f4- | f2 e2 d4 | e2 c4 c2 | %36
w: su- a,||i-|* mi- ta- ti|sunt e- * * *||um in mor-|* te su-|a, i- mi-|
 c2 c2 d2 f2- | feed/c/ d4 | c2 A2 c2 B2 | A4 B2 B2 | e8 | e4 d4 | B4 d4 | d2 e2 d4 | z8 | %45
w: ta- ti sunt e-||um in mor- te|su- a, in|mor-|te su-|a, et|i- de- o||
 z4 z2 g2 | g2 f2 g2 g2 | a4 g4 | f3 e/d/ e2 e2 | d4 c4 | z4 z2 c2 | e2 f2 e2 c2 | c2 B2 e2 e2 | %53
w: co-|ro- nas tri- um-|pha- les|me- * * * ru-|e- runt,|et|i- de- o co-|ro- nas tri- um-|
 d4 e2 c2 | B2 c3 B/A/ B2 | c4 z4 | z8 | z2 c2 c2 B2 | c2 c2 e4 | d2 A2 d2 e2- | e2 dc B4 | %61
w: pha- les me-|ru- e- * * *|runt||co- ro- nas|tri- um- pha-|les me- ru- e-|* * * runt,|
 A3 B c2 A2 | d8 | d8 |] %64
w: me- * * ru-|e-|runt.|
V:3
 G8 | B4 c4 | G8 | z8 | z4 z2 c2- | c2 c2 B2 B2 | A3 A G2 A2 | B4 c2 d2 | e2 e2 d2 G2 | %9
w: Vi-|ri san-|cti||glo-|* ri- o- sum|san- gui- nem su-|de- runt pro|Do- mi- no, pro|
 ED/E/ F4 E2 | G4 A4 | z2 G4 G2 | F2 F2 E3 E | E2 E2 D4 | F2 E2 G4 | G2 D2 E2 E2 | D2 A2 c2 BA | %17
w: Do- * * * mi-|no, _|glo- ri-|o- sum san- gui-|nem su- de-|runt, su- de-|runt pro Do- mi-|no, pro Do- * *|
 G4 A4 | G3 A B3 c | d4 z4 | z8 | z4 G4- | G2 G2 E2 G2 | F4 E2 G2 | CDEC D2 G2 | %25
w: * mi-|no, _ _ _|_||a-|* ma- ve- runt|Chri- stim in|vi- * * * * ta|
"^#""^#" GF/E/ F2 G4 | z2 c4 c2 | A2 B2 c4 | A2 c2 G2 B2 | A4 G2 c2- | c2 c2 c2 c2 | c8 | d8 | %33
w: su- * * * a,|a- ma-|ve- runt Chri-|stum in vi- ta|su- a, i-|* mi- ta- ti|sunt|e-|
 c2 c2 d4- | d2 c2 _B4 | A4 z2 F2- | F2 F2 F2 F2 | A2 c3 B/A/ B2 | c4 z4 | z8 | z2 G2 c4- | %41
w: um in mor-|* te su-|a, i-|* mi- ta- ti|sunt e- * * *|um||in mor-|
 c2 B2 A4 | G4 z2 G2 | B2 c2 B2 d2 | d2 c2 d2 d2 | e4 d4 | c2 A2 d4 | A2 d2 G2 c2- | cB/A/ B2 c4 | %49
w: * te su-|a, et|i- de- o co-|ro- nas tri- um-|pha- les|me- ru- e-|runt, me- ru- e-|* * * * runt,|
 z2 G2 A2 c2 | c8 | z2 F2 G2 A2 | G2 G2 G2 E2 | G2 G2 G4 | G4 z4 | z2 A2 D2 G2- | %56
w: et i- de-|o|co- ro- nas|tri- um- pha- les|me- ru e-|runt,|me- ru- e-|
"^#""^#" GF/E/ F2 G4- | G4 z2 D2 | E2 F2 C4 | z2 c2 c2 B2 | c2 c2 d4- | d2 c2 c3 B/A/ | B2 B2 A4 | %63
w: * * * * runt,|_ et|i- de- o|co- ro- nas|tri- um- pha-|* les me- * *|* ru- e-|
 G8 |] %64
w: runt.|
V:4
 z8 | z8 | z8 | z4 z2 G,2- | G,2 G,2 F,2 F,2 | E,3 E, D,2 E,2 | F,4 C,2 F,2 | G,2 G,2 F,4 | z8 | %9
w: |||Glo-|* ri- o- sum|san- gui- nem su-|de- runt pro|Do- mi- no,||
 C,8 | E,4 F,4 | C,4 z4 | z4 z2 C,2- | C,2 C,2 B,,2 B,,2 | A,,3 A,, G,,2 G,,2 | B,,4 C,4 | %16
w: vi-|ri san-|cti|glo-|* ri- o- sum|san- gui- nem su-|de- runt|
 D,4 E,4 | E,4 D,4 | z4 G,4- | G,2 G,2 E,2 F,2 | G,4 E,4 | z8 | C,6 C,2 | A,,2 B,,2 C,4 | %24
w: pro Do-|mi- no,|a-|* ma- ve- runt|Chri- stum,||a- ma-|ve- runt Chri-|
 A,,2 C,2 G,,2 B,,2 | A,,4 G,,2 G,2 | C,6 E,2 | D,4 C,4- | C,4 z4 | z4 z2 C,2- | C,2 C,2 C,2 C,2 | %31
w: sti in vi- ta|su- a, in|vi- ta|su- a|_|i-|* mi- ta- ti|
 A,,4 A,4 | G,8 | C,4 z4 | z8 | z8 | z8 | z4 G,4 | A,6 G,2 | F,4 E,2 E,2 | C,8 | C,4 D,4 | G,,8 | %43
w: sunt _|e-|um,||||in|mor- te|su- a, in|mor-|te su-|a,|
 z4 G,4 | G,2 A,2 G,2 G,2 | G,2 E,2 G,2 G,2 | A,4 G,4 | F,3 E,/D,/ E,2 E,2 | D,4 C,4 | z4 z2 C,2 | %50
w: et|i- de- o co-|ro- nas tri- um-|pha- les|me- * * * ru-|e- runt,|et|
 E,2 F,2 E,2 C,2 | C,2 D,2 C,4 | z4 C,4 | C,2 B,,2 C,2 C,2 | E,4 D,4 | C,3 B,,/A,,/ B,,2 B,,2 | %56
w: i- de- o, et|i- de- o|co-|ro- nas tri- um-|pha- les|me- * * * ru-|
 A,,4 G,,2 G,,2 | B,,2 C,2 G,,4 | z4 z2 G,2 | G,2 F,2 G,2 G,2 | A,4 G,4 | F,3 E,/D,/ E,2 F,2 | %62
w: e- runt, et|i- de- o|co-|ro- nas tri- um-|pha- les|me- * * * ru-|
 G,4 D,4 | G,,8 |] %64
w: e- *|runt.|

